!! 00010] TT[TB
!! Eigene Aufnahme
!!!OTL: Shuijing jiubei The cristal cup
!!!ARE: Neimeng
!! Ethnic Group: Menggu
!! MM, S. 1378  MM, nach Singen vom Saenger korrigiert.
!!!SCT: C0575
!!!YEM: Copyright 1995, estate of Helmut Schaffrath.
**kern
*ICvox
*Ivox
*M3/4
*k[]
*C:
{2e
4g
=1
2.a
=2
2d
4e
=3
8c
8A
2G}
=4
{4G
4A
4c
=5
2e
4g
=6
2e
8d
8c
=7
2.d}
=8
{4e
4d
4g
=9
4e
4d
4e
=10
4.d
8e
8c
8A
=11
2.G}
=12
{4G
4A
4c
=13
2d
4g
=14
2e
8d
8e
=15
2.c}
==
!!!AGN: NN
!! Saenger: Chao Lun Batou, der das Buch nur zum Nachschlagen
!!    benutzte und ansonsten auswendig sang. Da er aus dem Osten der
!!    Neimeng kommt, kennt er nicht so viele Lieder des Westens.
!!    Alle Lieder wurden mit erkaelteter, halber Stimme in meinem
!!    Zimmer gesungen. FOTO VORHANDEN (DIAS)  31.3.87
!!    VARIANTE, 2 Strophen.
!!!ONB: ESAC (Essen Associative Code) Database: CHINA
!!!AMT: simple triple
!!!AIN: vox
!!!EED: Helmut Schaffrath
!!!EEV: 1.0
*-
